assets/toml/mono.svg

<svg viewBox="0 0 24 24" xmlns="http://www.w3.org/2000/svg"><path d="m.014 0h5.34v2.652h-2.466v18.681h2.468v2.667h-5.341v-24zm17.622 5.049v2.78h-4.274v12.935h-3.008v-12.934h-4.295v-2.78h11.577zm6.35 18.951h-5.34v-2.652h2.467v-18.681h-2.468v-2.667h5.34v24z"/></svg>

<svg xmlns="http://www.w3.org/2000/svg" viewBox="0 0 24 24"><path d="M.014 0h5.34v2.652H2.888v18.681h2.468V24H.015zm17.622 5.049v2.78h-4.274v12.935h-3.008V7.83H6.059V5.05h11.577zM23.986 24h-5.34v-2.652h2.467V2.667h-2.468V0h5.34v24z"/></svg>
